; generated by PrusaSlicer 2.3.1+win64 on 2022-03-01 at 13:09:53 UTC

; 

; external perimeters extrusion width = 0.67mm
; perimeters extrusion width = 0.67mm
; infill extrusion width = 0.67mm
; solid infill extrusion width = 0.67mm
; top infill extrusion width = 0.67mm
; support material extrusion width = 0.35mm
; first layer extrusion width = 0.67mm

M201 X500 Y500 Z100 E5000 ; sets maximum accelerations, mm/sec^2
M203 X500 Y500 Z10 E60 ; sets maximum feedrates, mm/sec
M204 P500 R1000 T500 ; sets acceleration (P, T) and retract acceleration (R), mm/sec^2
M205 X8.00 Y8.00 Z0.40 E5.00 ; sets the jerk limits, mm/sec
M205 S0 T0 ; sets the minimum extruding and travel feed rate, mm/sec
M107
;TYPE:Custom
G90 ; use absolute coordinates
M83 ; extruder relative mode
M104 S120 ; set temporary nozzle temp to prevent oozing during homing and auto bed leveling
M140 S60 ; set final bed temp
G4 S10 ; allow partial nozzle warmup
G28 ; home all axis
G1 Z50 F240
G1 X2 Y10 F3000
M104 S210 ; set final nozzle temp
M190 S60 ; wait for bed temp to stabilize
M109 S210 ; wait for nozzle temp to stabilize
G1 Z0.28 F240
G92 E0
G1 Y140 E10 F1500 ; prime the nozzle
G1 X2.3 F5000
G92 E0
G1 Y10 E10 F1200 ; prime the nozzle
G92 E0
G21 ; set units to millimeters
G90 ; use absolute coordinates
M83 ; use relative distances for extrusion
; Filament gcode
;LAYER_CHANGE
;Z:0.3
;HEIGHT:0.3
;BEFORE_LAYER_CHANGE
G92 E0
;0.3


G1 E-5.00000 F3600.000
G1 Z0.300 F7800.000
;AFTER_LAYER_CHANGE
;0.3
G1 X45.377 Y72.804
G1 E5.00000 F2400.000
;TYPE:Skirt
;WIDTH:0.67
G1 F1800.000
G1 X46.539 Y72.102 E0.10258
G1 X47.844 Y71.608 E0.10543
G1 X48.965 Y71.386 E0.08629
G1 X61.689 Y70.009 E0.96677
G1 X120.268 Y69.914 E4.42481
G1 X147.409 Y71.340 E2.05300
G1 X148.346 Y71.442 E0.07114
G1 X201.062 Y82.327 E4.06600
G1 X202.135 Y82.679 E0.08527
G1 X203.126 Y83.205 E0.08479
G1 X204.019 Y83.896 E0.08527
G1 X204.778 Y84.723 E0.08479
G1 X205.355 Y85.611 E0.08001
G1 X205.783 Y86.580 E0.08001
G1 X206.051 Y87.605 E0.08001
G1 X206.151 Y88.653 E0.07953
G1 X206.152 Y172.789 E6.35529
G1 X205.965 Y174.266 E0.11247
G1 X205.456 Y175.659 E0.11200
G1 X204.644 Y176.907 E0.11247
G1 X203.579 Y177.938 E0.11200
G1 X202.835 Y178.435 E0.06758
G1 X202.037 Y178.825 E0.06710
G1 X201.187 Y179.105 E0.06758
G1 X200.314 Y179.267 E0.06710
G1 X147.191 Y184.540 E4.03241
G1 X49.660 Y184.538 E7.36709
G1 X48.741 Y184.457 E0.06972
G1 X47.859 Y184.268 E0.06816
G1 X46.265 Y183.629 E0.12971
G1 X45.492 Y183.151 E0.06866
G1 X44.822 Y182.616 E0.06476
G1 X43.422 Y181.143 E0.15350
G1 X42.743 Y180.086 E0.09489
G1 X42.258 Y178.960 E0.09258
G1 X41.958 Y177.760 E0.09344
G1 X41.857 Y176.545 E0.09215
G1 X41.857 Y79.262 E7.34839
G1 X41.954 Y78.134 E0.08551
G1 X42.220 Y77.028 E0.08587
G1 X42.649 Y75.970 E0.08627
G1 X43.218 Y75.008 E0.08445
G1 X44.036 Y74.021 E0.09682
G1 X45.310 Y72.865 E0.12992
G1 E-3.50000 F3600.000
;WIPE_START
G1 F6240.000
G1 X46.539 Y72.102 E-0.79277
G1 X47.618 Y71.694 E-0.63223
;WIPE_END
G1 E-0.07500 F3600.000
G1 X151.097 Y88.484 F7800.000
G1 E5.00000 F2400.000
;TYPE:Support material
G1 F1800.000
G1 X151.097 Y100.008 E0.87045
G1 X152.308 Y100.008 E0.09149
G1 X152.308 Y88.757 E0.84986
G1 X153.520 Y88.757 E0.09149
G1 X153.520 Y100.008 E0.84986
G1 X154.684 Y100.008 E0.08796
G1 X154.684 Y95.073 E0.37273
G1 X154.731 Y95.027 E0.00500
G1 X154.731 Y88.757 E0.47361
G1 X155.942 Y88.757 E0.09149
G1 X155.942 Y94.700 E0.44892
G1 X157.153 Y94.700 E0.09149
G1 X157.153 Y88.757 E0.44892
G1 X158.364 Y88.757 E0.09149
G1 X158.364 Y94.700 E0.44892
G1 X159.576 Y94.700 E0.09149
G1 X159.576 Y88.757 E0.44892
G1 X160.787 Y88.757 E0.09149
G1 X160.787 Y94.700 E0.44892
G1 X161.998 Y94.700 E0.09149
G1 X161.998 Y88.757 E0.44892
G1 X163.209 Y88.757 E0.09149
G1 X163.209 Y94.700 E0.44892
G1 X164.421 Y94.700 E0.09149
G1 X164.421 Y88.757 E0.44892
G1 X165.632 Y88.757 E0.09149
G1 X165.632 Y94.700 E0.44892
G1 X166.843 Y94.700 E0.09149
G1 X166.843 Y88.757 E0.44892
G1 X168.054 Y88.757 E0.09149
G1 X168.054 Y94.700 E0.44892
G1 X169.266 Y94.700 E0.09149
G1 X169.266 Y88.757 E0.44892
G1 X170.477 Y88.757 E0.09149
G1 X170.477 Y94.700 E0.44892
G1 X171.688 Y94.700 E0.09149
G1 X171.688 Y88.757 E0.44892
G1 X172.899 Y88.757 E0.09149
G1 X172.899 Y94.700 E0.44892
G1 X174.111 Y94.700 E0.09149
G1 X174.111 Y88.757 E0.44892
G1 X175.322 Y88.757 E0.09149
G1 X175.322 Y94.700 E0.44892
G1 X176.533 Y94.700 E0.09149
G1 X176.533 Y88.757 E0.44892
G1 X177.744 Y88.757 E0.09149
G1 X177.744 Y94.700 E0.44892
G1 X178.956 Y94.700 E0.09149
G1 X178.956 Y88.757 E0.44892
G1 X180.167 Y88.757 E0.09149
G1 X180.167 Y94.700 E0.44892
G1 X181.378 Y94.700 E0.09149
G1 X181.378 Y88.757 E0.44892
G1 X182.589 Y88.757 E0.09149
G1 X182.589 Y94.700 E0.44892
G1 X183.800 Y94.700 E0.09149
G1 X183.800 Y88.757 E0.44892
G1 X185.012 Y88.757 E0.09149
G1 X185.012 Y94.700 E0.44892
G1 X186.223 Y94.700 E0.09149
G1 X186.223 Y88.757 E0.44892
G1 X187.434 Y88.757 E0.09149
G1 X187.434 Y94.700 E0.44892
G1 X188.645 Y94.700 E0.09149
G1 X188.645 Y88.757 E0.44892
G1 X189.857 Y88.757 E0.09149
G1 X189.857 Y94.700 E0.44892
G1 X191.068 Y94.700 E0.09149
G1 X191.068 Y88.757 E0.44892
G1 X192.279 Y88.757 E0.09149
G1 X192.279 Y94.700 E0.44892
G1 X193.490 Y94.700 E0.09149
G1 X193.490 Y88.757 E0.44892
G1 X194.702 Y88.757 E0.09149
G1 X194.702 Y94.700 E0.44892
G1 X195.586 Y94.700 E0.06678
G1 X195.913 Y95.027 E0.03495
G1 X195.913 Y88.757 E0.47363
G1 X197.124 Y88.757 E0.09149
G1 X197.124 Y100.008 E0.84986
G1 X198.335 Y100.008 E0.09149
G1 X198.335 Y88.757 E0.84986
G1 X199.547 Y88.757 E0.09149
G1 X199.547 Y100.280 E0.87045
G1 E-3.50000 F3600.000
;WIPE_START
G1 F6240.000
G1 X199.547 Y97.680 E-1.42500
;WIPE_END
G1 E-0.07500 F3600.000
G1 X192.279 Y125.703 F7800.000
G1 E5.00000 F2400.000
G1 F1800.000
G1 X192.279 Y135.215 E0.71853
G1 X193.490 Y135.215 E0.09149
G1 X193.490 Y125.975 E0.69794
G1 X194.702 Y125.975 E0.09149
G1 X194.702 Y135.215 E0.69794
G1 X195.586 Y135.215 E0.06678
G1 X195.913 Y135.542 E0.03495
G1 X195.913 Y125.648 E0.74736
G1 X195.959 Y125.602 E0.00497
G1 X195.959 Y122.184 E0.25815
G1 X197.124 Y122.184 E0.08798
G1 X197.124 Y139.006 E1.27069
G1 X198.335 Y139.006 E0.09149
G1 X198.335 Y122.184 E1.27069
G1 X199.547 Y122.184 E0.09149
G1 X199.547 Y139.279 E1.29128
G1 E-3.50000 F3600.000
;WIPE_START
G1 F6240.000
G1 X199.547 Y136.679 E-1.42500
;WIPE_END
G1 E-0.07500 F3600.000
G1 X199.547 Y172.706 F7800.000
G1 E5.00000 F2400.000
G1 F1800.000
G1 X199.547 Y161.183 E0.87045
G1 X198.335 Y161.183 E0.09149
G1 X198.335 Y172.434 E0.84986
G1 X197.124 Y172.434 E0.09149
G1 X197.124 Y161.183 E0.84986
G1 X195.959 Y161.183 E0.08798
G1 X195.959 Y166.117 E0.37273
G1 X195.913 Y166.164 E0.00497
G1 X195.913 Y172.434 E0.47362
G1 X194.702 Y172.434 E0.09149
G1 X194.702 Y166.491 E0.44891
G1 X193.490 Y166.491 E0.09149
G1 X193.490 Y172.434 E0.44891
G1 X192.279 Y172.434 E0.09149
G1 X192.279 Y166.491 E0.44891
G1 X191.068 Y166.491 E0.09149
G1 X191.068 Y172.434 E0.44891
G1 X189.857 Y172.434 E0.09149
G1 X189.857 Y166.491 E0.44891
G1 X188.645 Y166.491 E0.09149
G1 X188.645 Y172.434 E0.44891
G1 X187.434 Y172.434 E0.09149
G1 X187.434 Y166.491 E0.44891
G1 X186.223 Y166.491 E0.09149
G1 X186.223 Y172.434 E0.44891
G1 X185.012 Y172.434 E0.09149
G1 X185.012 Y166.491 E0.44891
G1 X183.800 Y166.491 E0.09149
G1 X183.800 Y172.434 E0.44891
G1 X182.589 Y172.434 E0.09149
G1 X182.589 Y166.491 E0.44891
G1 X181.378 Y166.491 E0.09149
G1 X181.378 Y172.434 E0.44891
G1 X180.167 Y172.434 E0.09149
G1 X180.167 Y166.491 E0.44891
G1 X178.956 Y166.491 E0.09149
G1 X178.956 Y172.434 E0.44891
G1 X177.744 Y172.434 E0.09149
G1 X177.744 Y166.491 E0.44891
G1 X176.533 Y166.491 E0.09149
G1 X176.533 Y172.434 E0.44891
G1 X175.322 Y172.434 E0.09149
G1 X175.322 Y166.491 E0.44891
G1 X174.111 Y166.491 E0.09149
G1 X174.111 Y172.434 E0.44891
G1 X172.899 Y172.434 E0.09149
G1 X172.899 Y166.491 E0.44891
G1 X171.688 Y166.491 E0.09149
G1 X171.688 Y172.434 E0.44891
G1 X170.477 Y172.434 E0.09149
G1 X170.477 Y166.491 E0.44891
G1 X169.266 Y166.491 E0.09149
G1 X169.266 Y172.434 E0.44891
G1 X168.054 Y172.434 E0.09149
G1 X168.054 Y166.491 E0.44891
G1 X166.843 Y166.491 E0.09149
G1 X166.843 Y172.434 E0.44891
G1 X165.632 Y172.434 E0.09149
G1 X165.632 Y166.491 E0.44891
G1 X164.421 Y166.491 E0.09149
G1 X164.421 Y172.434 E0.44891
G1 X163.209 Y172.434 E0.09149
G1 X163.209 Y166.491 E0.44891
G1 X161.998 Y166.491 E0.09149
G1 X161.998 Y172.434 E0.44891
G1 X160.787 Y172.434 E0.09149
G1 X160.787 Y166.491 E0.44891
G1 X159.576 Y166.491 E0.09149
G1 X159.576 Y172.434 E0.44891
G1 X158.364 Y172.434 E0.09149
G1 X158.364 Y166.491 E0.44891
G1 X157.153 Y166.491 E0.09149
G1 X157.153 Y172.434 E0.44891
G1 X155.942 Y172.434 E0.09149
G1 X155.942 Y166.491 E0.44891
G1 X155.058 Y166.491 E0.06680
G1 X154.731 Y166.164 E0.03492
G1 X154.731 Y172.434 E0.47360
G1 X153.520 Y172.434 E0.09149
G1 X153.520 Y161.183 E0.84986
G1 X152.308 Y161.183 E0.09149
G1 X152.308 Y172.434 E0.84986
G1 X151.097 Y172.434 E0.09149
G1 X151.097 Y160.910 E0.87045
G1 E-3.50000 F3600.000
;WIPE_START
G1 F6240.000
G1 X151.097 Y163.510 E-1.42500
;WIPE_END
G1 E-0.07500 F3600.000
G1 X158.364 Y135.488 F7800.000
G1 E5.00000 F2400.000
G1 F1800.000
G1 X158.364 Y125.975 E0.71853
G1 X157.153 Y125.975 E0.09149
G1 X157.153 Y135.215 E0.69794
G1 X155.942 Y135.215 E0.09149
G1 X155.942 Y125.975 E0.69794
G1 X155.058 Y125.975 E0.06680
G1 X154.731 Y125.649 E0.03492
G1 X154.731 Y135.542 E0.74732
G1 X154.684 Y135.589 E0.00500
G1 X154.684 Y139.006 E0.25815
G1 X153.520 Y139.006 E0.08796
G1 X153.520 Y122.184 E1.27069
G1 X152.308 Y122.184 E0.09149
G1 X152.308 Y139.006 E1.27069
G1 X151.097 Y139.006 E0.09149
G1 X151.097 Y121.912 E1.29128
G1 E-3.50000 F3600.000
;WIPE_START
G1 F6240.000
G1 X151.097 Y124.512 E-1.42500
;WIPE_END
G1 E-0.07500 F3600.000
G1 X189.323 Y155.627 F7800.000
G1 E5.00000 F2400.000
;TYPE:Perimeter
G1 F1800.000
G1 X189.611 Y155.372 E0.02911
G1 X189.937 Y155.166 E0.02911
G1 X190.292 Y155.015 E0.02911
G1 X190.666 Y154.923 E0.02911
G1 X191.016 Y154.894 E0.02652
G1 X191.426 Y154.921 E0.03108
G1 X191.808 Y155.015 E0.02969
G1 X192.162 Y155.166 E0.02911
G1 X192.488 Y155.372 E0.02911
G1 X192.777 Y155.627 E0.02911
G1 X193.020 Y155.926 E0.02911
G1 X193.213 Y156.260 E0.02911
G1 X193.350 Y156.620 E0.02911
G1 X193.427 Y156.997 E0.02911
G1 X193.442 Y157.382 E0.02911
G1 X193.396 Y157.765 E0.02911
G1 X193.288 Y158.135 E0.02911
G1 X193.123 Y158.483 E0.02911
G1 X192.904 Y158.800 E0.02911
G1 X192.637 Y159.078 E0.02911
G1 X192.329 Y159.310 E0.02910
G1 X192.019 Y159.473 E0.02652
G1 X191.630 Y159.610 E0.03108
G1 X191.242 Y159.673 E0.02969
G1 X190.857 Y159.673 E0.02911
G1 X190.477 Y159.611 E0.02911
G1 X190.111 Y159.489 E0.02911
G1 X189.770 Y159.310 E0.02911
G1 X189.462 Y159.078 E0.02911
G1 X189.195 Y158.800 E0.02911
G1 X188.976 Y158.483 E0.02911
G1 X188.811 Y158.135 E0.02911
G1 X188.704 Y157.765 E0.02911
G1 X188.657 Y157.382 E0.02911
G1 X188.673 Y156.997 E0.02911
G1 X188.750 Y156.620 E0.02911
G1 X188.887 Y156.260 E0.02911
G1 X189.079 Y155.926 E0.02910
G1 X189.266 Y155.697 E0.02231
G1 X189.761 Y156.048 F7800.000
;TYPE:External perimeter
G1 F1800.000
G1 X189.976 Y155.858 E0.02172
G1 X190.219 Y155.704 E0.02172
G1 X190.484 Y155.591 E0.02172
G1 X190.763 Y155.522 E0.02172
G1 X191.021 Y155.502 E0.01951
G1 X191.334 Y155.522 E0.02370
G1 X191.616 Y155.591 E0.02193
G1 X191.880 Y155.704 E0.02172
G1 X192.123 Y155.858 E0.02172
G1 X192.338 Y156.048 E0.02172
G1 X192.520 Y156.271 E0.02172
G1 X192.664 Y156.520 E0.02172
G1 X192.766 Y156.789 E0.02172
G1 X192.823 Y157.071 E0.02172
G1 X192.835 Y157.358 E0.02172
G1 X192.800 Y157.643 E0.02172
G1 X192.720 Y157.920 E0.02172
G1 X192.597 Y158.179 E0.02172
G1 X192.434 Y158.416 E0.02172
G1 X192.235 Y158.623 E0.02172
G1 X192.005 Y158.796 E0.02172
G1 X191.776 Y158.916 E0.01951
G1 X191.480 Y159.020 E0.02370
G1 X191.194 Y159.067 E0.02193
G1 X190.906 Y159.067 E0.02172
G1 X190.622 Y159.021 E0.02172
G1 X190.349 Y158.930 E0.02172
G1 X190.095 Y158.796 E0.02172
G1 X189.865 Y158.623 E0.02172
G1 X189.666 Y158.416 E0.02172
G1 X189.502 Y158.179 E0.02172
G1 X189.379 Y157.920 E0.02172
G1 X189.299 Y157.643 E0.02172
G1 X189.264 Y157.358 E0.02172
G1 X189.276 Y157.071 E0.02172
G1 X189.334 Y156.789 E0.02172
G1 X189.436 Y156.520 E0.02172
G1 X189.579 Y156.271 E0.02172
G1 X189.704 Y156.118 E0.01492
G1 X189.681 Y155.772 F7800.000
G1 E-3.50000 F3600.000
;WIPE_START
G1 F6240.000
G1 X189.976 Y155.858 E-0.20644
G1 X190.219 Y155.704 E-0.15760
G1 X190.484 Y155.591 E-0.15759
G1 X190.763 Y155.522 E-0.15759
G1 X191.021 Y155.502 E-0.14158
G1 X191.334 Y155.522 E-0.17194
G1 X191.616 Y155.591 E-0.15911
G1 X191.880 Y155.704 E-0.15759
G1 X192.058 Y155.817 E-0.11555
;WIPE_END
G1 E-0.07500 F3600.000
G1 X193.575 Y155.648 F7800.000
G1 E5.00000 F2400.000
;TYPE:Perimeter
G1 F1800.000
G1 X193.215 Y155.207 E0.04306
G1 X192.853 Y154.886 E0.03649
G1 X192.445 Y154.628 E0.03649
G1 X192.000 Y154.439 E0.03649
G1 X191.519 Y154.320 E0.03745
G1 X191.011 Y154.287 E0.03847
G1 X190.568 Y154.323 E0.03353
G1 X190.099 Y154.439 E0.03649
G1 X189.655 Y154.628 E0.03649
G1 X189.246 Y154.886 E0.03649
G1 X188.885 Y155.207 E0.03650
G1 X188.579 Y155.581 E0.03649
G1 X188.338 Y155.999 E0.03649
G1 X188.166 Y156.451 E0.03649
G1 X188.070 Y156.924 E0.03649
G1 X188.050 Y157.407 E0.03649
G1 X188.108 Y157.887 E0.03649
G1 X188.243 Y158.351 E0.03649
G1 X188.450 Y158.787 E0.03649
G1 X188.724 Y159.185 E0.03649
G1 X189.059 Y159.533 E0.03649
G1 X189.445 Y159.823 E0.03649
G1 X189.873 Y160.048 E0.03649
G1 X190.331 Y160.201 E0.03649
G1 X190.808 Y160.278 E0.03649
G1 X191.291 Y160.278 E0.03649
G1 X191.781 Y160.199 E0.03745
G1 X192.261 Y160.030 E0.03847
G1 X192.654 Y159.823 E0.03353
G1 X193.040 Y159.533 E0.03649
G1 X193.575 Y158.976 E0.05833
G1 X193.575 Y164.107 E0.38755
G1 X157.068 Y164.107 E2.75762
G1 X157.068 Y158.976 E0.38758
G1 X157.603 Y159.533 E0.05836
G1 X158.000 Y159.831 E0.03745
G1 X158.454 Y160.060 E0.03847
G1 X158.875 Y160.201 E0.03353
G1 X159.352 Y160.278 E0.03649
G1 X159.835 Y160.278 E0.03649
G1 X160.325 Y160.199 E0.03745
G1 X160.805 Y160.030 E0.03847
G1 X161.198 Y159.823 E0.03354
G1 X161.585 Y159.533 E0.03649
G1 X161.919 Y159.185 E0.03649
G1 X162.194 Y158.787 E0.03649
G1 X162.401 Y158.351 E0.03649
G1 X162.535 Y157.887 E0.03649
G1 X162.593 Y157.407 E0.03649
G1 X162.574 Y156.924 E0.03649
G1 X162.477 Y156.451 E0.03649
G1 X162.306 Y155.999 E0.03649
G1 X162.064 Y155.581 E0.03649
G1 X161.759 Y155.207 E0.03649
G1 X161.397 Y154.886 E0.03649
G1 X160.989 Y154.628 E0.03649
G1 X160.544 Y154.439 E0.03649
G1 X160.063 Y154.320 E0.03745
G1 X159.555 Y154.287 E0.03847
G1 X159.112 Y154.323 E0.03353
G1 X158.643 Y154.439 E0.03649
G1 X158.199 Y154.628 E0.03649
G1 X157.791 Y154.886 E0.03649
G1 X157.429 Y155.207 E0.03649
G1 X157.068 Y155.649 E0.04310
G1 X157.068 Y137.599 E1.36337
G1 X193.575 Y137.599 E2.75762
G1 X193.575 Y155.558 E1.35655
G1 E-3.50000 F3600.000
;WIPE_START
G1 F6240.000
G1 X193.215 Y155.207 E-0.27603
G1 X192.853 Y154.886 E-0.26480
G1 X192.445 Y154.628 E-0.26479
G1 X192.000 Y154.439 E-0.26477
G1 X191.519 Y154.320 E-0.27175
G1 X191.368 Y154.310 E-0.08286
;WIPE_END
G1 E-0.07500 F3600.000
G1 X161.971 Y156.997 F7800.000
G1 E5.00000 F2400.000
G1 F1800.000
G1 X161.986 Y157.382 E0.02911
G1 X161.940 Y157.765 E0.02911
G1 X161.833 Y158.135 E0.02911
G1 X161.667 Y158.483 E0.02911
G1 X161.449 Y158.800 E0.02911
G1 X161.182 Y159.078 E0.02911
G1 X160.874 Y159.310 E0.02910
G1 X160.563 Y159.473 E0.02652
G1 X160.175 Y159.610 E0.03108
G1 X159.787 Y159.673 E0.02969
G1 X159.401 Y159.673 E0.02911
G1 X159.021 Y159.611 E0.02911
G1 X158.688 Y159.500 E0.02652
G1 X158.320 Y159.314 E0.03108
G1 X158.006 Y159.078 E0.02969
G1 X157.739 Y158.800 E0.02911
G1 X157.520 Y158.483 E0.02911
G1 X157.370 Y158.166 E0.02652
G1 X157.249 Y157.773 E0.03108
G1 X157.202 Y157.382 E0.02969
G1 X157.217 Y156.997 E0.02911
G1 X157.294 Y156.620 E0.02911
G1 X157.431 Y156.260 E0.02911
G1 X157.623 Y155.926 E0.02911
G1 X157.867 Y155.627 E0.02911
G1 X158.156 Y155.372 E0.02911
G1 X158.481 Y155.166 E0.02911
G1 X158.836 Y155.015 E0.02911
G1 X159.210 Y154.923 E0.02911
G1 X159.560 Y154.894 E0.02652
G1 X159.970 Y154.921 E0.03108
G1 X160.352 Y155.015 E0.02969
G1 X160.707 Y155.166 E0.02911
G1 X161.032 Y155.372 E0.02911
